app/images/shop-bg.svg

<svg width="603" height="823" fill="none" xmlns="http://www.w3.org/2000/svg"><path opacity=".5" d="M319 396.174c-15.2-12.337-133-8.675-133 7.71 0 16.386 148 61.686 164 61.686 15-1.928-15.8-57.059-31-69.396zM340 281.477c-24-8.482-68 3.534-87 10.602 14 8.353 46.8 26.988 66 34.698 19.2 7.711 52.667 8.996 67 8.675-5.333-14.458-22-45.493-46-53.975zM206 139.793c-17.334 4.819-52.4 11.566-54 0-2-14.458 0-32.771 11-37.59 11-4.82 21-12.53 32-11.566 11 .964 17-11.566 20 5.783 2.4 13.879-5 34.698-9 43.373 6.667-11.566 22.4-33.927 32-30.843 12 3.855 23 19.277 22 30.843-1 11.566-17 44.336-22 46.264-5.564 0-11.63-6.631-17.101-15.282 6.155 14.774 8.104 28.518-8.899 30.703-30 3.856-79-20.737-60-40.481 19-19.744 43.333-14.779 54-21.204zM127 326.778c0-26.988-13.947-55.147-33-44.337-9.643 5.471-14 17.156-14 24.096 0 8.674 14 33.734 14 53.011s7 20.241 28 29.879c21 9.638 5-28.915 5-62.649zM544 155.214c8 14.651-13.333 42.088-25 53.975 13.333-11.887 42.6-37.975 53-47.228 13-11.566 17 11.566 25 36.626 8 25.06 0 29.879-8 54.939-3.464 10.85-14.895 6.191-27.191-3.372 2.126 5.588 3.639 12.134 4.191 19.757 3 41.445-13 12.53-22 24.096-7.2 9.253-28.333 3.855-38 0-8-2.249-26-12.337-34-34.698s23.333-37.59 40-42.409c-6 .642-22.4 3.855-40 11.566-22 9.638-7-3.855-17-29.879s13-29.879 17-43.373c4-13.494 21-23.132 40-23.132s22 4.819 32 23.132z" fill="#D2DFE6"/><path d="M491.221 822c-11.966-15.204-45.527-50.487-84.038-69.99-48.138-24.378-100.356-55.441-99.54-86.11.816-30.67 31.412-72.349 39.571-101.839 6.311-22.808 17.729-58.301 6.12-65.271-24.885-14.941-43.243 5.505-72.616 0-29.372-5.505-83.222-38.533-101.172-63.698-14.36-20.132-30.46-45.611-36.715-55.835 17.95 4.194 62.498 11.325 97.092 6.292 43.243-6.292 87.302-13.762 107.291 5.898 18.646 18.338 3.672 65.664 20.806 72.741 7.502 3.1 17.71.215 26.517-4.321m17.542-12.193c-4.063 3.56-10.259 8.441-17.542 12.193m0 0c-4.08 3.013-2.448 10.219 7.751 11.399 20.398 2.359 40.795-19.66 47.322-36.174 6.528-16.515 10.607-34.602 0-37.747-10.606-3.146-27.74 9.436-23.661 18.087 4.08 8.65 11.423 7.077 8.159 19.66-3.263 12.582-13.054 36.967-14.686 24.775-1.632-12.193 13.054-16.125 6.527-24.775M111.826 318.705c-4.895 1.179 1.358 10.131 0 14.548-6.527 21.233-11.422 6.684-15.502-9.044-4.08-15.728-2.448-27.524 6.527-25.164 7.18 1.887 16.046 8.126 19.582 11.009-1.904-14.941-8.976-38.533-26.109-38.533-11.422 0-32.636 17.3-18.766 52.688 13.87 35.388 29.873 67.631 45.375 61.34 15.502-6.292 7.689-34.019-4.579-31.063-27.741 6.684 15.185 70.383 4.579 160.032C114.447 586.238 8.503 624.45-7 654.858m388.074-314.527c-3.263-15.466-6.504-42.797-20.397-51.903-10.199-6.684-13.463-1.179-21.622-4.325-8.159-3.145-6.935-11.796-19.173-11.796-9.791 0-41.067 14.417-57.929 22.019m119.121 46.005c-17.677 0-50.47-3.481-67.72-12.189-17.134-8.651-44.33-23.592-51.401-33.816m119.121 46.005c-9.246-9.437-33.82-29.651-44.874-35.388-21.214-11.01-74.247-10.617-74.247-10.617M336.2 169.289c5.439 2.359 19.418 10.695 31.82 25.165 9.386 10.951 23.722 20.135 28.965 25.558M336.2 169.289l-27.741 30.669s-8.932 7.199-11.423 13.369m39.164-44.038c-10.471-6.16-35.247-19.346-50.586-22.806-11.984-2.703-25.81-1.806-35.084-.842m85.67 23.648c-2.448-3.932-7.751-13.054-9.383-18.087-2.04-6.291-2.04-14.155-5.304-35.388-2.352-15.303-11.869-18.132-24.885-20.36M336.2 169.29c13.054-6.029 40.795-20.289 47.322-29.097 1.208-1.629 1.882-3.307 2.858-4.325m-89.344 77.46c-1.902 4.713-2.761 10.802-2.447 15.335.408 5.898-2.04 10.223 11.83 21.233 13.871 11.009 37.532-2.752 61.193 0 22.811 2.653 31.82-3.932 33.86-16.121 1.286-7.686-1.071-10.228-4.487-13.762m-99.949-6.685c-3.414 4.719-9.606 10.651-19.581 15.335-15.91 7.471-40.593-29.282-50.994-34.602-19.99-10.223-.816-35.781 8.975-41.679 9.791-5.898 10.606-5.898 15.094-6.74m0 0c-3.672-3.52-11.015-12.291-11.015-19.211 0-12.975 12.239-38.533 40.387-34.208 7.752 1.19 11.831 2.395 16.726 3.233m0 0c3.808-3.83 11.423-18.41 26.109-19.354 18.358-1.18 15.095 10.223 36.308 11.01 14.686.544 22.845-8.738 36.716 7.47 11.909 13.918 9.908 25.636 7.343 29.097-4.08 5.505-11.106 6.327-16.724 12.189m10.605 84.145c11.558.607 43.083-9.698 40.795-23.592-4.08-24.771 5.303-40.612-13.871-50.779-15.339-8.134-32.091-9.905-37.529-9.774" stroke="#868C96" stroke-linecap="round" stroke-linejoin="round"/><path d="M207.369 138.738c1.698 3.008 5.212 11.815 5.685 22.983.358 8.453 3.771 18.114 4.231 22.507m-9.916-45.49-24.62 4.913s-6.88.641-10.367 2.702m34.987-7.615c-2.664-6.557-9.486-21.413-15.467-28.38-4.673-5.443-11.519-9.49-16.277-12.254m31.744 40.634c.309-2.715 1.203-8.882 2.31-11.836 1.384-3.692 4.324-7.421 10.712-18.624 4.604-8.074 1.194-12.393-4.146-17.968m-8.876 48.428c8.444 1.674 26.931 4.543 33.318 2.632 1.182-.353 3.919-1.427 4.763-1.571m-73.068 6.554c-2.663 1.575-5.347 4.165-6.893 6.423-2.011 2.939-4.788 4.14-2.325 14.178 2.463 10.037 18.828 11.726 29.021 21.247 9.827 9.179 16.561 9.184 22.084 4.112 3.483-3.199 3.315-5.223 3.016-8.085m-44.903-37.875c-3.383 1.053-8.537 1.716-15.018.474-10.338-1.981-8.307-27.982-11.252-34.116-5.659-11.79 12.987-17.253 19.835-16.65 6.847.602 7.234.885 9.678 2.043m0 0c-.426-2.944-.631-9.653 1.956-12.935 4.85-6.154 20.207-14.025 31.94-2.2 3.231 3.256 4.715 5.244 6.724 7.34m0 0c3.237-.494 12.298-4.764 19.616-.112 9.147 5.815 3.338 10.089 13.104 17.828 6.762 5.358 14.101 3.788 14.621 16.291.446 10.736-4.883 15.598-7.393 16.349-3.992 1.195-5.888-1.695-10.743-.866m-28.165 44.429c5.254 4.301 24.057 10.36 28.165 2.976 7.324-13.164 17.325-17.389 13.239-29.317-3.243-9.463-11.423-14.549-13.239-18.088M438.287 237.562c1.318 2.335 4.046 9.172 4.414 17.843.278 6.562 2.927 14.062 3.284 17.472m-7.698-35.315-19.113 3.814s-5.341.498-8.048 2.098m27.161-5.912c-2.068-5.09-7.364-16.624-12.007-22.032-3.628-4.226-8.943-7.368-12.637-9.513m24.644 31.545c.24-2.107.934-6.895 1.794-9.188 1.074-2.866 3.356-5.762 8.315-14.459 3.575-6.268.928-9.621-3.218-13.949m-6.891 37.596c6.556 1.299 20.907 3.527 25.866 2.044.917-.275 3.043-1.108 3.698-1.22m-56.725 5.088c-2.068 1.223-4.151 3.233-5.351 4.986-1.561 2.282-3.718 3.215-1.805 11.007 1.912 7.792 14.617 9.104 22.53 16.495 7.628 7.126 12.856 7.13 17.144 3.192 2.704-2.483 2.574-4.055 2.341-6.277m-34.859-29.403c-2.627.817-6.628 1.332-11.66.368-8.025-1.538-6.449-21.724-8.735-26.486-4.393-9.152 10.082-13.394 15.399-12.926 5.316.468 5.616.688 7.513 1.587m0 0c-.33-2.286-.489-7.494 1.519-10.042 3.765-4.777 15.687-10.888 24.796-1.708 2.508 2.528 3.661 4.071 5.22 5.699m0 0c2.513-.384 9.547-3.699 15.228-.088 7.102 4.514 2.591 7.833 10.174 13.841 5.249 4.159 10.946 2.941 11.35 12.647.347 8.335-3.791 12.109-5.739 12.692-3.1.928-4.571-1.316-8.34-.672m-21.866 34.491c4.079 3.34 18.677 8.043 21.866 2.311 5.685-10.22 13.45-13.5 10.277-22.76-2.517-7.346-8.868-11.295-10.277-14.042" stroke="#868C96" stroke-linecap="round" stroke-linejoin="round"/><path d="M432.56 141.947c-2.259 2.642-7.444 10.646-10.109 21.525-2.016 8.234-7.27 16.621-8.586 20.849m18.695-42.374 23.204 9.329s6.629 1.413 9.647 4.076m-32.851-13.405c3.907-5.95 13.531-19.288 20.776-25.034 5.66-4.489 13.178-7.684 18.394-9.526m-39.17 34.56c.232-2.722.568-8.941.063-12.043-.632-3.878-2.783-8.078-6.849-20.246-2.93-8.769 1.269-12.86 7.61-17.357m-.824 49.646c-8.621.098-22.49-2.456-29.048-3.72-2.04-.393-5.287-.944-7.343-1.246m69.242 18.371c2.304 2.033 4.429 5.067 5.502 7.567 1.395 3.253 3.886 4.941-.51 14.345-4.395 9.404-20.795 8.068-32.678 15.551-11.456 7.214-18.068 5.987-22.492-.004-2.789-3.778-2.226-5.734-1.368-8.49m51.546-28.969c3.114 1.652 8.043 3.246 14.652 3.213 10.54-.054 13.667-25.954 17.766-31.437 7.879-10.54-9.352-19.316-16.194-19.977-6.842-.662-7.278-.454-9.905.236m0 0c.998-2.813 2.52-9.362.627-13.058-3.549-6.93-17.077-17.468-30.925-8.005-3.814 2.606-5.663 4.286-8.048 5.977m0 0c-3.081-1.077-11.136-6.928-19.237-3.7-10.126 4.035-5.264 9.295-16.378 15.106-7.694 4.023-14.59 1.14-17.563 13.32-2.553 10.459-2.527 16.002 2.908 17.988 4.488 1.639 8.734 1.332 13.055 1.966m17.696 47.34c-6.007 3.262-25.661 5.77-28.24-2.231-4.597-14.265-13.941-20.34-6.483-30.642 5.966-8.242 7.795-9.796 17.027-14.467" stroke="#868C96" stroke-linecap="round" stroke-linejoin="round"/><path d="M519.413 208.811c-2.213-4.225-9.839-14.999-22.641-24.298-9.689-7.038-18.402-18.372-23.221-22.329m45.862 46.627-25.15 23.115s-6.164 7.036-11.338 9.237m36.488-32.352c5.641 8.074 17.801 27.228 21.317 39.26 2.747 9.399 2.139 20.082 1.657 27.469m-22.974-66.729c3.445 1.796 11.423 5.665 15.777 6.773 5.443 1.386 12.153 1.097 30.39 2.904 13.143 1.302 15.556 8.434 17.935 18.668m-64.102-28.345c4.665-10.569 15.813-33.082 23.088-38.579 1.346-1.017 4.764-3.173 5.597-3.984m-65.173 74.915c-3.951 1.681-9.115 2.585-12.994 2.503-5.048-.106-8.648 1.993-18.551-8.597-9.904-10.59.969-29.851-2.248-48.505-3.102-17.983 2.186-25.367 12.511-27.431 6.511-1.302 8.767.473 11.908 3.051m9.374 78.979c-3.9 2.879-8.734 8.005-12.365 16.085-5.79 12.885 26.477 31.1 31.397 39.149 9.457 15.47 30.56-.667 35.233-8.645 4.673-7.977 4.643-8.624 5.197-12.212m0 0c3.138 2.781 10.891 8.279 16.796 8.025 11.071-.476 32.429-11.116 27.705-33.269-1.301-6.101-2.478-9.29-3.373-13.14m0 0c3.128-3.158 15.288-9.73 15.554-21.406.332-14.595-9.277-11.589-10.727-28.375-1.004-11.621 6.616-18.429-7.723-28.828-12.313-8.929-22.238-6.912-25.097-4.752-4.547 3.436-2.628 7.785-7.424 12.453m-74.547-4.064c-.943-9.14 6.692-34.506 18.63-33.203 21.287 2.324 34.133-5.315 44.99 8.541 8.613 10.992 8.181 23.954 10.927 28.726M315.747 53.689c11.856 16.907-22.413 30.67-19.582 41.679 0 0-7.319-3.539-24.045-3.539-16.726 0-25.429 13.369-26.516 13.369-1.904-5.243-6.038-19.503-7.344-34.602-1.305-15.099 4.328-55.965-3.287-69.596 23.117 11.272 70.619 38.206 80.774 52.689z" stroke="#868C96" stroke-linecap="round" stroke-linejoin="round"/><path d="M513.598 96.428c-12.12 7.366.844 26.676-4.019 32.755 0 0 9.916-2.067 20.279 2.321 10.364 4.388 11.981 14.954 12.655 15.239 2.66-2.748 9.248-10.499 14.321-19.512 5.072-9.013 13.122-35.81 21.69-42.259-17.506.92-54.544 5.147-64.926 11.456z" stroke="#868C96" stroke-linecap="round" stroke-linejoin="round"/></svg>

<svg width="603" height="823" viewBox="0 0 603 823" fill="none" xmlns="http://www.w3.org/2000/svg">
<path opacity="0.5" d="M319 396.174C303.8 383.837 186 387.499 186 403.884C186 420.27 334 465.57 350 465.57C365 463.642 334.2 408.511 319 396.174Z" fill="#D2DFE6"/>
<path opacity="0.5" d="M340 281.477C316 272.995 272 285.011 253 292.079C267 300.432 299.8 319.067 319 326.777C338.2 334.488 371.667 335.773 386 335.452C380.667 320.994 364 289.959 340 281.477Z" fill="#D2DFE6"/>
<path opacity="0.5" d="M206 139.793C188.666 144.612 153.6 151.359 152 139.793C150 125.335 152 107.022 163 102.203C174 97.3838 184 89.6731 195 90.6369C206 91.6008 212 79.0709 215 96.42C217.4 110.299 210 131.118 206 139.793C212.667 128.227 228.4 105.866 238 108.95C250 112.805 261 128.227 260 139.793C259 151.359 243 184.129 238 186.057C232.436 186.057 226.37 179.426 220.899 170.775C227.054 185.549 229.003 199.293 212 201.478C182 205.334 133 180.741 152 160.997C171 141.253 195.333 146.218 206 139.793Z" fill="#D2DFE6"/>
<path opacity="0.5" d="M127 326.778C127 299.79 113.053 271.631 94 282.441C84.3568 287.912 80 299.597 80 306.537C80 315.211 94 340.271 94 359.548C94 378.825 101 379.789 122 389.427C143 399.065 127 360.512 127 326.778Z" fill="#D2DFE6"/>
<path opacity="0.5" d="M544 155.214C552 169.865 530.667 197.302 519 209.189C532.333 197.302 561.6 171.214 572 161.961C585 150.395 589 173.527 597 198.587C605 223.647 597 228.466 589 253.526C585.536 264.376 574.105 259.717 561.809 250.154C563.935 255.742 565.448 262.288 566 269.911C569 311.356 553 282.441 544 294.007C536.8 303.26 515.667 297.862 506 294.007C498 291.758 480 281.67 472 259.309C464 236.948 495.333 221.719 512 216.9C506 217.542 489.6 220.755 472 228.466C450 238.104 465 224.611 455 198.587C445 172.563 468 168.708 472 155.214C476 141.72 493 132.082 512 132.082C531 132.082 534 136.901 544 155.214Z" fill="#D2DFE6"/>
<path d="M491.221 822C479.255 806.796 445.694 771.513 407.183 752.01C359.045 727.632 306.827 696.569 307.643 665.9C308.459 635.23 339.055 593.551 347.214 564.061C353.525 541.253 364.943 505.76 353.334 498.79C328.449 483.849 310.091 504.295 280.718 498.79C251.346 493.285 197.496 460.257 179.546 435.092C165.186 414.96 149.086 389.481 142.831 379.257C160.781 383.451 205.329 390.582 239.923 385.549C283.166 379.257 327.225 371.787 347.214 391.447C365.86 409.785 350.886 457.111 368.02 464.188C375.522 467.288 385.73 464.403 394.537 459.867M412.079 447.674C408.016 451.234 401.82 456.115 394.537 459.867M394.537 459.867C390.457 462.88 392.089 470.086 402.288 471.266C422.686 473.625 443.083 451.606 449.61 435.092C456.138 418.577 460.217 400.49 449.61 397.345C439.004 394.199 421.87 406.781 425.949 415.432C430.029 424.082 437.372 422.509 434.108 435.092C430.845 447.674 421.054 472.059 419.422 459.867C417.79 447.674 432.476 443.742 425.949 435.092M111.826 318.705C106.931 319.884 113.184 328.836 111.826 333.253C105.299 354.486 100.404 339.937 96.3241 324.209C92.2446 308.481 93.8764 296.685 102.851 299.045C110.031 300.932 118.897 307.171 122.433 310.054C120.529 295.113 113.457 271.521 96.3241 271.521C84.9015 271.521 63.688 288.821 77.5583 324.209C91.4287 359.597 107.431 391.84 122.933 385.549C138.435 379.257 130.622 351.53 118.354 354.486C90.6128 361.17 133.539 424.869 122.933 514.518C114.447 586.238 8.50225 624.45 -6.99992 654.858M381.074 340.331C377.811 324.865 374.57 297.534 360.677 288.428C350.478 281.744 347.214 287.249 339.055 284.103C330.896 280.958 332.12 272.307 319.882 272.307C310.091 272.307 278.815 286.724 261.953 294.326M381.074 340.331C363.397 340.331 330.604 336.85 313.354 328.142C296.22 319.491 269.024 304.55 261.953 294.326M381.074 340.331C371.828 330.894 347.254 310.68 336.2 304.943C314.986 293.933 261.953 294.326 261.953 294.326M336.2 169.289C341.639 171.648 355.618 179.984 368.02 194.454C377.406 205.405 391.742 214.589 396.985 220.012M336.2 169.289L308.459 199.958C308.459 199.958 299.527 207.157 297.036 213.327M336.2 169.289C325.729 163.129 300.953 149.943 285.614 146.483C273.63 143.78 259.804 144.677 250.53 145.641M336.2 169.289C333.752 165.357 328.449 156.235 326.817 151.202C324.777 144.911 324.777 137.047 321.513 115.814C319.161 100.511 309.644 97.6823 296.628 95.4546M336.2 169.289C349.254 163.26 376.995 149 383.522 140.192C384.73 138.563 385.404 136.885 386.38 135.867M297.036 213.327C295.134 218.04 294.275 224.129 294.589 228.662C294.997 234.56 292.549 238.885 306.419 249.895C320.29 260.904 343.951 247.143 367.612 249.895C390.423 252.548 399.432 245.963 401.472 233.774C402.758 226.088 400.401 223.546 396.985 220.012M297.036 213.327C293.622 218.046 287.43 223.978 277.455 228.662C261.545 236.133 236.862 199.38 226.461 194.06C206.471 183.837 225.645 158.279 235.436 152.381C245.227 146.483 246.042 146.483 250.53 145.641M250.53 145.641C246.858 142.121 239.515 133.35 239.515 126.43C239.515 113.455 251.754 87.8967 279.902 92.2218C287.654 93.4128 291.733 94.6168 296.628 95.4546M296.628 95.4546C300.436 91.6246 308.051 77.0448 322.737 76.1011C341.095 74.9215 337.832 86.3242 359.045 87.1106C373.731 87.6551 381.89 78.3732 395.761 94.5815C407.67 108.499 405.669 120.217 403.104 123.678C399.024 129.183 391.998 130.005 386.38 135.867M396.985 220.012C408.543 220.619 440.068 210.314 437.78 196.42C433.7 171.649 443.083 155.808 423.909 145.641C408.57 137.507 391.818 135.736 386.38 135.867" stroke="#868C96" stroke-linecap="round" stroke-linejoin="round"/>
<path d="M207.369 138.738C209.067 141.746 212.581 150.553 213.054 161.721C213.412 170.174 216.825 179.835 217.285 184.228M207.369 138.738L182.749 143.651C182.749 143.651 175.869 144.292 172.382 146.353M207.369 138.738C204.705 132.181 197.883 117.325 191.902 110.358C187.229 104.915 180.383 100.868 175.625 98.1045M207.369 138.738C207.678 136.023 208.572 129.856 209.679 126.902C211.063 123.21 214.003 119.481 220.391 108.278C224.995 100.204 221.585 95.8854 216.245 90.3097M207.369 138.738C215.813 140.412 234.3 143.281 240.687 141.37C241.869 141.017 244.606 139.943 245.45 139.799M172.382 146.353C169.719 147.928 167.035 150.518 165.489 152.776C163.478 155.715 160.701 156.916 163.164 166.954C165.627 176.991 181.992 178.68 192.185 188.201C202.012 197.38 208.746 197.385 214.269 192.313C217.752 189.114 217.584 187.09 217.285 184.228M172.382 146.353C168.999 147.406 163.845 148.069 157.364 146.827C147.026 144.846 149.057 118.845 146.112 112.711C140.453 100.921 159.099 95.4579 165.947 96.0603C172.794 96.6627 173.181 96.946 175.625 98.1045M175.625 98.1045C175.199 95.1603 174.994 88.4512 177.581 85.1692C182.431 79.0154 197.788 71.1439 209.521 82.9689C212.752 86.2251 214.236 88.2126 216.245 90.3097M216.245 90.3097C219.482 89.8154 228.543 85.5449 235.861 90.1968C245.008 96.0116 239.199 100.286 248.965 108.025C255.727 113.383 263.066 111.813 263.586 124.316C264.032 135.052 258.703 139.914 256.193 140.665C252.201 141.86 250.305 138.97 245.45 139.799M217.285 184.228C222.539 188.529 241.342 194.588 245.45 187.204C252.774 174.04 262.775 169.815 258.689 157.887C255.446 148.424 247.266 143.338 245.45 139.799" stroke="#868C96" stroke-linecap="round" stroke-linejoin="round"/>
<path d="M438.287 237.562C439.605 239.897 442.333 246.734 442.701 255.405C442.979 261.967 445.628 269.467 445.985 272.877M438.287 237.562L419.174 241.376C419.174 241.376 413.833 241.874 411.126 243.474M438.287 237.562C436.219 232.472 430.923 220.938 426.28 215.53C422.652 211.304 417.337 208.162 413.643 206.017M438.287 237.562C438.527 235.455 439.221 230.667 440.081 228.374C441.155 225.508 443.437 222.612 448.396 213.915C451.971 207.647 449.324 204.294 445.178 199.966M438.287 237.562C444.843 238.861 459.194 241.089 464.153 239.606C465.07 239.331 467.196 238.498 467.851 238.386M411.126 243.474C409.058 244.697 406.975 246.707 405.775 248.46C404.214 250.742 402.057 251.675 403.97 259.467C405.882 267.259 418.587 268.571 426.5 275.962C434.128 283.088 439.356 283.092 443.644 279.154C446.348 276.671 446.218 275.099 445.985 272.877M411.126 243.474C408.499 244.291 404.498 244.806 399.466 243.842C391.441 242.304 393.017 222.118 390.731 217.356C386.338 208.204 400.813 203.962 406.13 204.43C411.446 204.898 411.746 205.118 413.643 206.017M413.643 206.017C413.313 203.731 413.154 198.523 415.162 195.975C418.927 191.198 430.849 185.087 439.958 194.267C442.466 196.795 443.619 198.338 445.178 199.966M445.178 199.966C447.691 199.582 454.725 196.267 460.406 199.878C467.508 204.392 462.997 207.711 470.58 213.719C475.829 217.878 481.526 216.66 481.93 226.366C482.277 234.701 478.139 238.475 476.191 239.058C473.091 239.986 471.62 237.742 467.851 238.386M445.985 272.877C450.064 276.217 464.662 280.92 467.851 275.188C473.536 264.968 481.301 261.688 478.128 252.428C475.611 245.082 469.26 241.133 467.851 238.386" stroke="#868C96" stroke-linecap="round" stroke-linejoin="round"/>
<path d="M432.56 141.947C430.301 144.589 425.116 152.593 422.451 163.472C420.435 171.706 415.181 180.093 413.865 184.321M432.56 141.947L455.764 151.276C455.764 151.276 462.393 152.689 465.411 155.352M432.56 141.947C436.467 135.997 446.091 122.659 453.336 116.913C458.996 112.424 466.514 109.229 471.73 107.387M432.56 141.947C432.792 139.225 433.128 133.006 432.623 129.904C431.991 126.026 429.84 121.826 425.774 109.658C422.844 100.889 427.043 96.7985 433.384 92.3014M432.56 141.947C423.939 142.045 410.07 139.491 403.512 138.227C401.472 137.834 398.225 137.283 396.169 136.981M465.411 155.352C467.715 157.385 469.84 160.419 470.913 162.919C472.308 166.172 474.799 167.86 470.403 177.264C466.008 186.668 449.608 185.332 437.725 192.815C426.269 200.029 419.657 198.802 415.233 192.811C412.444 189.033 413.007 187.077 413.865 184.321M465.411 155.352C468.525 157.004 473.454 158.598 480.063 158.565C490.603 158.511 493.73 132.611 497.829 127.128C505.708 116.588 488.477 107.812 481.635 107.151C474.793 106.489 474.357 106.697 471.73 107.387M471.73 107.387C472.728 104.574 474.25 98.0245 472.357 94.3289C468.808 87.3997 455.28 76.8613 441.432 86.3244C437.618 88.9302 435.769 90.6099 433.384 92.3014M433.384 92.3014C430.303 91.2237 422.248 85.3729 414.147 88.6012C404.021 92.6365 408.883 97.8964 397.769 103.707C390.075 107.73 383.179 104.847 380.206 117.027C377.653 127.486 377.679 133.029 383.114 135.015C387.602 136.654 391.848 136.347 396.169 136.981M413.865 184.321C407.858 187.583 388.204 190.091 385.625 182.09C381.028 167.825 371.684 161.75 379.142 151.448C385.108 143.206 386.937 141.652 396.169 136.981" stroke="#868C96" stroke-linecap="round" stroke-linejoin="round"/>
<path d="M519.413 208.811C517.2 204.586 509.574 193.812 496.772 184.513C487.083 177.475 478.37 166.141 473.551 162.184M519.413 208.811L494.263 231.926C494.263 231.926 488.099 238.962 482.925 241.163M519.413 208.811C525.054 216.885 537.214 236.039 540.73 248.071C543.477 257.47 542.869 268.153 542.387 275.54M519.413 208.811C522.858 210.607 530.836 214.476 535.19 215.584C540.633 216.97 547.343 216.681 565.58 218.488C578.723 219.79 581.136 226.922 583.515 237.156M519.413 208.811C524.078 198.242 535.226 175.729 542.501 170.232C543.847 169.215 547.265 167.059 548.098 166.248M482.925 241.163C478.974 242.844 473.81 243.748 469.931 243.666C464.883 243.56 461.283 245.659 451.38 235.069C441.476 224.479 452.349 205.218 449.132 186.564C446.03 168.581 451.318 161.197 461.643 159.133C468.154 157.831 470.41 159.606 473.551 162.184M482.925 241.163C479.025 244.042 474.191 249.168 470.56 257.248C464.77 270.133 497.037 288.348 501.957 296.397C511.414 311.867 532.517 295.73 537.19 287.752C541.863 279.775 541.833 279.128 542.387 275.54M542.387 275.54C545.525 278.321 553.278 283.819 559.183 283.565C570.254 283.089 591.612 272.449 586.888 250.296C585.587 244.195 584.41 241.006 583.515 237.156M583.515 237.156C586.643 233.998 598.803 227.426 599.069 215.75C599.401 201.155 589.792 204.161 588.342 187.375C587.338 175.754 594.958 168.946 580.619 158.547C568.306 149.618 558.381 151.635 555.522 153.795C550.975 157.231 552.894 161.58 548.098 166.248M473.551 162.184C472.608 153.044 480.243 127.678 492.181 128.981C513.468 131.305 526.314 123.666 537.171 137.522C545.784 148.514 545.352 161.476 548.098 166.248" stroke="#868C96" stroke-linecap="round" stroke-linejoin="round"/>
<path d="M315.747 53.6888C327.603 70.5963 293.334 84.3583 296.165 95.3679C296.165 95.3679 288.846 91.8291 272.12 91.8291C255.394 91.8291 246.691 105.198 245.604 105.198C243.7 99.9552 239.566 85.6952 238.26 70.5963C236.955 55.4975 242.588 14.6309 234.973 1C258.09 12.2717 305.592 39.2061 315.747 53.6888Z" stroke="#868C96" stroke-linecap="round" stroke-linejoin="round"/>
<path d="M513.598 96.4279C501.478 103.794 514.442 123.104 509.579 129.183C509.579 129.183 519.495 127.116 529.858 131.504C540.222 135.892 541.839 146.458 542.513 146.743C545.173 143.995 551.761 136.244 556.834 127.231C561.906 118.218 569.956 91.4201 578.524 84.9722C561.018 85.8917 523.98 90.1186 513.598 96.4279Z" stroke="#868C96" stroke-linecap="round" stroke-linejoin="round"/>
</svg>
